X:1
T:Song of a Warrior's Wife
T:Song of a Warrior's Wife
T:Skidi and Chaui Bands, 1919
C:Skidi and Chaui Bands, 1919
L:1/8
Q:1/4=88
M:7/8
K:D
V:1 treble 
V:1
 A/ | A>A!tenuto!c/B/ A7/2 A/ |: E>EF/E/ D7/2 A,/ | A,>A,D>D | E>EF/E/ E,B,/A,/ B,/A,/B,/A,/ | %5
 A,3 A, A,2 | A,7/2 E/ z3 | A,2 z |] %8

